X:1
T:Oh, Won’t You Be a Christian?
T:Oh, Won’t You Be a Christian?
T:Alfred Arthur Graley
T:Alfred Arthur Graley, 1865
T:Public Domain Courtesy of the Cyber Hymnal™
T:Public Domain Courtesy of the Cyber Hymnal™
C:Alfred Arthur Graley
Z:Public Domain
Z:Courtesy of the Cyber Hymnal™
%%score ( 1 2 ) 3
L:1/8
Q:1/4=85
M:4/4
K:Ab
V:1 treble 
V:2 treble 
V:3 bass 
V:1
 [CE] | [Ec]>[DB] [Fd][Ec] | [Ec][DB] [CA][B,G] | [CA]4- | [CA]2 z [CE] | [DF]>[EG] [FA][GB] | %6
w: 1.~Oh,|won’t you be a|Chris- tian While you’re|young?|* Oh,|won’t you be a|
w: 2.~Oh,|won’t you love the|Sav- ior While you’re|young?|* Oh,|won’t you love the|
w: 3.~Re-|mem- ber, death may|find you While you’re|young!|* Re-|mem- ber, death may|
w: 4.~Oh,|walk the path to|glo- ry While you’re|young;|* Oh,|walk the path to|
w: 5.~Then|won’t you be a|Chris- tian While you’re|young?|* Then|won’t you be a|
 [Ac][Bd] [ce][Ac] | [GB]4- | [GB]2 z [GB] | [Ac]>[GB] [Ac][Bd] | [ce][Ac] [Ac][GB] | %11
w: Chris- tian While you’re|young?|* Don’t|think it will be|bet- ter To de-|
w: Sav- ior While you’re|young?|* For|you He left His|glo- ry, And em-|
w: find you While you’re|young:|* For|friends are oft- en|weep- ing, And the|
w: glo- ry While you’re|young;|* And|Je- sus will be-|friend you, And from|
w: Chris- tian While you’re|young?|* Why|from the fu- ture|bor- row, When, ere|
 [FA][FA] [=EG][EG] | FF [FA][DF] | E[EA] [CA][Ec] | [Ec][DB] [CA][B,G] | [CA]4- x3 | [CA]2 z |] %17
w: lay it un- til|lat- er, But re-|mem- ber your Cre-|a- tor While you’re|young.||
w: braced a cross so|go- ry, Won’t you|heed the melt- ing|sto- ry While you’re|young?||
w: stars their watch are|keep- ing O’er the|grass- y graves, where|sleep- ing Lie the|young.||
w: dan- ger will de-|fend you, And a|peace di- vine will|send you While you’re|young.||
w: comes an- o- ther|mor- row, You may|weep in end- less|sor- row While you’re|young?||
V:2
 x | x4 | x4 | x4 | x4 | x4 | x4 | x4 | x4 | x4 | x4 | x4 | FF x2 | E x3 | x4 | x7 | x3 |] %17
V:3
 A, | A,>A, A,A, | E,E,E,E, | A,,4- | A,,2 z A,, | D,>D, D,D, | C,B,,A,,C, | E,4- | E,2 z E, | %9
 A,>A, A,A, | A,A,A,E, | F,F,C,C, | D,D,D,D, | C,C,A,,A,, | E,E,E,E, | A,,4- A,,2 z | x3 |] %17

